!!!!SEGMENT: pl-wumfc--n68232--001-018_moniuszko-stanislaw--paria-wyciag-fortepianowy-akt-ii-scena-iv-recitativo-i-romans.krn
!!!cenid: 18xx:4148
!!!COM: Moniuszko, Stanisław
!!!COM-rismID: pe30008351
!!!CDT: 1819/05/05-1872/06/04
!!!CNT: Polish
!!!GTL: Paria – wyciąg fortepianowy
!!!OTL: Akt II. Scena IV. Recitativo i Romans
!!!OMV: 018
!!!PDT:
!!!AGN:
!!!YEC: Copyright 2022 Narodowy Instytut Fryderyka Chopina (https://polishscores.org)
!!!YEM: License CC-BY-4.0 (https://creativecommons.org/licenses/by/4.0)
!!!SMS-siglum: PL-Wumfc
!!!SMS-shelfmark: N68232
!!!SMS-shelfwork: 001-018 G
!!!SMS-variant:
!!!SMS-altvar:
!!!NIFC-rismSourceID: 1001171381
!!!NIFC-rismChildID: 1001171381
!!!NIFC-islandoraID: pl-wumfc:7210
!!!URL-pdf-islandora: https://repozytorium.nifc.pl/islandora/object/pl-wumfc%3A7210/datastream/PDF/view
!!!URL-scan: https://polish.musicsources.pl/pl/lokalizacje/galeria/druki-muzyczne/12634/1 @EN{Scan on Polish Music Sources Website} @PL{Skany w portalu Dziedzictwo Muzyki Polskiej w otwartym dostępie}
!!!IIIF:
!!!ONB-nifc: UWAGA: str. 70-71. Uwaga: proszę w pliku umieszczać obsadę, która występuje tylko w danej części.
!!!AIN: 2 piano 1 vox
!!!key:
**kern	**kern	**dynam	**kern	**text	**text	**text	**text	**dynam
*part3	*part2	*	*part1	*	*	*	*	*
*staff3	*staff2	*	*staff1	*	*	*	*	*
*I"[Fortepian.]	*I"[Fortepian.]	*	*I"Neala. Neala.	*	*	*	*	*
*I'[pf]	*I'[pf]	*	*I'N. N.	*	*	*	*	*
*ICklav	*ICklav	*	*ICvox	*	*	*	*	*
*Ipiano	*Ipiano	*	*Ivox	*	*	*	*	*
*clefF4	*clefG2	*	*clefG2	*	*	*	*	*
*k[f#]	*k[f#]	*	*k[f#]	*	*	*	*	*
*e:	*e:	*	*e:	*	*	*	*	*
*M4/4	*M4/4	*	*M4/4	*	*	*	*	*
*met(c)	*met(c)	*	*met(c)	*	*	*	*	*
=1	=1	=1	=1	=1	=1	=1	=1	=1
!	!	!	!LO:TX:a:t=Neala. (Sama)	!	!	!	!	!
!	!	!	!LO:TX:a:i:t=Neala. (Solo)	!	!	!	!	!
!	!	!	!LO:TX:a:B:t=Lento. Recit.	!	!	!	!	!
1r	1r	.	4.b\	Pa-	Pa-	.	.	.
.	.	.	8a/	-ri-	-ri-	.	.	.
.	.	.	4cc\	-a!..	-a!	.	.	.
.	.	.	8r	.	.	.	.	.
!	!	!	!	!	!	!	!	!LO:DY:a:t=piu f
.	.	.	8cc\	On	un	.	.	f
=2	=2	=2	=2	=2	=2	=2	=2	=2
2r	2r	.	8.cc\	Pa-	pa-	.	.	.
.	.	.	16b\	-ri-	-ri-	.	.	.
.	.	.	4dd\	-a!	-a!	.	.	.
2BBB/ 2BB	[2d/ [2fn [>2g#X	fp > ]]	4r	.	.	.	.	.
.	.	.	8r	.	.	.	.	.
.	.	.	8dd\	Och	Deh	.	.	.
=3	=3	=3	=3	=3	=3	=3	=3	=3
1B	1d] 1f] 1g#]	pp	4.dd\	ci-	ta-	.	.	.
.	.	.	8cc#X\	-szej,	-ci,	.	.	.
.	.	.	8ccn\	ci-	po-	.	.	.
.	.	.	8b\	-szej	-ve-	.	.	.
.	.	.	8a/	bied-	-ro	.	.	.
.	.	.	8g#X/	-ne	mio	.	.	.
!!LO:LB:g=original	!	!	!	!	!	!	!	!
=4	=4	=4	=4	=4	=4	=4	=4	=4
2c\	(>[2e/ 2g#X	.	2b\	ser-	co-	.	.	.
8c\	8e/]) 8a	.	16a/	-ce!	-re!	.	.	.
.	.	.	16r	.	.	.	.	.
8r	8r	.	8a/	Niech	Con	.	.	.
4r	4r	.	8g#X/	i-	noi	.	.	.
.	.	.	8a/	-dzie	l'ar-	.	.	.
=5	=5	=5	=5	=5	=5	=5	=5	=5
1r	1r	.	4.ee\	z na-	-can	.	.	.
.	.	.	8cc\	-mi	di-	.	.	.
.	.	.	8.a/	ta-	-scen-	.	.	.
.	.	.	16e/	-jem-	-da	.	.	.
.	.	.	8c/	-ni-	nel-	.	.	.
.	.	.	8d/	-ca	-l'a-	.	.	.
=6	=6	=6	=6	=6	=6	=6	=6	=6
*^	*^	*	*	*	*	*	*	*
!	!	!	!	!	!LO:TX:a:i:t=a tempo	!	!	!	!	!
1G	(2G\	(2e/	1B	pp	4e/	w grób.	-vel.	.	.	.
.	.	.	.	.	4r	.	.	.	.	.
.	2Fn\)	2d/)	.	.	4g/	Szczę-	Del-	.	.	.
.	.	.	.	.	8a/	-ście	-le	.	.	.
.	.	.	.	.	8b\	co	do	.	.	.
*v	*v	*	*	*	*	*	*	*	*	*
*	*v	*v	*	*	*	*	*	*	*
!!LO:LB:g=original	!	!	!	!	!	!	!	!
=7	=7	=7	=7	=7	=7	=7	=7	=7
2E\ 2G	2c/ 2g	.	4dd\	w ja-	vi-	.	.	.
.	.	.	8cc\	-snej	-zie il	.	.	.
.	.	.	8b\	za-	ter-	.	.	.
2E\ 2Fn	2A</ 2c	.	4a/	-bły-	-re-	.	.	.
.	.	.	8g#X/	-ska	-no	.	.	.
.	.	.	8a/	is-	splen-	.	.	.
=8	=8	=8	=8	=8	=8	=8	=8	=8
*	*^	*	*	*	*	*	*	*
2D\ 2Fn	(>2A</ 2fn	2ryy	.	(4cc\	-kier-	-do-	.	.	.
.	.	.	.	8b\)	.	.	.	.	.
.	.	.	.	8a/	-ce,	-re	.	.	.
!	!	!LO:TX:t=P:problem:2D 2E 4..G 4..B 2D\ 2e bracketed notes	!	!	!	!	!	!	!
2D\ 2E	2e/)	4..G#X</ 4..B<	.	4g#X/	Zło-	non	.	.	.
.	.	.	.	8.a/	-żę	val	.	.	.
.	.	16B</	.	16b\	z ros-	l'of-	.	.	.
=9	=9	=9	=9	=9	=9	=9	=9	=9	=9
*^	*	*	*	*	*	*	*	*	*
!	!	!	!LO:TX:t=P:problem:4B 1e bracketed notes	!	!	!	!	!	!	!
1E	(2C#X\	1e	(4B</	.	4.b\	-ko-	-fer-	.	.	.
.	.	.	2A#X</)	.	.	.	.	.	.	.
.	.	.	.	.	8e/	-szą	-ta	.	.	.
.	2Cn\)	.	.	.	8g/	u	d'un	.	.	.
.	.	.	.	.	8g/	mi-	a-	.	.	.
.	.	.	4A#<H/	.	8f#/	-łoś-	-mor	.	.	.
.	.	.	.	.	8e/	-ci	fe-	.	.	.
*v	*v	*	*	*	*	*	*	*	*	*
=10	=10	=10	=10	=10	=10	=10	=10	=10	=10
[2BB\ [2F#	(8d#X/L	4Bh\	.	2.b;\	stop.	-del.	.	.	.
.	8f#/J	.	.	.	.	.	.	.	.
.	[4b/	[4d#\	.	.	.	.	.	.	.
8BB\] 8F#]	8b/])	8d#\]	.	.	.	.	.	.	.
8r	8ryy	8r	.	.	.	.	.	.	.
4r;	4ryy	4r;>	.	4r	.	.	.	.	.
*	*v	*v	*	*	*	*	*	*	*
!!LO:PB:g=original	!	!	!	!	!	!	!	!
=11!|:	=11!|:	=11!|:	=11!|:	=11!|:	=11!|:	=11!|:	=11!|:	=11!|:
!	!	!	!LO:TX:a:B:t=Un poco agitato.	!	!	!	!	!
*tremolo	*	*	*	*	*	*	*	*
32E\LLL 32G	4r	p	4e/	Snu-	O	Sor-	Del-	.
32A#X\	.	.	.	.	.	.	.	.
32E\ 32G	.	.	.	.	.	.	.	.
32A#\	.	.	.	.	.	.	.	.
32E\ 32G	.	.	.	.	.	.	.	.
32A#\	.	.	.	.	.	.	.	.
32E\ 32G	.	.	.	.	.	.	.	.
32A#\	.	.	.	.	.	.	.	.
32E\ 32G	4e/ 4g	.	8d#X/	-ją	nie-	-ger	-l'av-	.
32A#\	.	.	.	.	.	.	.	.
32E\ 32G	.	.	.	.	.	.	.	.
32A#\	.	.	.	.	.	.	.	.
32E\ 32G	.	.	8e/	się	-chaj	di	-ve-	.
32A#\	.	.	.	.	.	.	.	.
32E\ 32G	.	.	.	.	.	.	.	.
32A#\JJJ	.	.	.	.	.	.	.	.
32E\LLL 32G	4r	.	4.ee\	z da-	przy-	spet-	-nir	.
32B\	.	.	.	.	.	.	.	.
32E\ 32G	.	.	.	.	.	.	.	.
32B\	.	.	.	.	.	.	.	.
32E\ 32G	.	.	.	.	.	.	.	.
32B\	.	.	.	.	.	.	.	.
32E\ 32G	.	.	.	.	.	.	.	.
32B\	.	.	.	.	.	.	.	.
32E\ 32G	4e/ 4g	.	.	.	.	.	.	.
32B\	.	.	.	.	.	.	.	.
32E\ 32G	.	.	.	.	.	.	.	.
32B\	.	.	.	.	.	.	.	.
32E\ 32G	.	.	16ddn\LL	-la	-szłość	-tri	s'of-	.
32B\	.	.	.	.	.	.	.	.
32E\ 32G	.	.	16cc\JJ	.	.	.	.	.
32B\JJJ	.	.	.	.	.	.	.	.
=12	=12	=12	=12	=12	=12	=12	=12	=12
32E\LLL 32F#	4r	.	4b\	gro-	za-	ve-	-fu-	.
32A\	.	.	.	.	.	.	.	.
32E\ 32F#	.	.	.	.	.	.	.	.
32A\	.	.	.	.	.	.	.	.
32E\ 32F#	.	.	.	.	.	.	.	.
32A\	.	.	.	.	.	.	.	.
32E\ 32F#	.	.	.	.	.	.	.	.
32A\	.	.	.	.	.	.	.	.
.	.	.	8qdd/	.	.	.	.	.
32E\ 32F#	4B/ 4d#X 4f# 4b	.	8cc\	-źne	-chmu-	-do u-	-schi il	.
32A\	.	.	.	.	.	.	.	.
32E\ 32F#	.	.	.	.	.	.	.	.
32A\	.	.	.	.	.	.	.	.
32E\ 32F#	.	.	8b\	wi-	-rza	-na	se-	.
32A\	.	.	.	.	.	.	.	.
32E\ 32F#	.	.	.	.	.	.	.	.
32A\JJJ	.	.	.	.	.	.	.	.
32E\LLL 32G	4r	.	4.dd\	-dzia-	li-	schie-	-re-	.
32B\	.	.	.	.	.	.	.	.
32E\ 32G	.	.	.	.	.	.	.	.
32B\	.	.	.	.	.	.	.	.
32E\ 32G	.	.	.	.	.	.	.	.
32B\	.	.	.	.	.	.	.	.
32E\ 32G	.	.	.	.	.	.	.	.
32B\	.	.	.	.	.	.	.	.
32E\ 32G	4B/ 4dn 4e	.	.	.	.	.	.	.
32B\	.	.	.	.	.	.	.	.
32E\ 32G	.	.	.	.	.	.	.	.
32B\	.	.	.	.	.	.	.	.
32E\ 32G	.	.	8g#X/	-dła,	-ca	-ra,	-no,	.
32B\	.	.	.	.	.	.	.	.
32E\ 32G	.	.	.	.	.	.	.	.
32B\JJJ	.	.	.	.	.	.	.	.
=13	=13	=13	=13	=13	=13	=13	=13	=13
32E\LLL 32A	4r	.	8r	.	.	.	.	.
32c\	.	.	.	.	.	.	.	.
32E\ 32A	.	.	.	.	.	.	.	.
32c\	.	.	.	.	.	.	.	.
32E\ 32A	.	.	8a/	Zni-	Los	va-	tre-	.
32c\	.	.	.	.	.	.	.	.
32E\ 32A	.	.	.	.	.	.	.	.
32c\	.	.	.	.	.	.	.	.
32E\ 32A	4e/	.	8b\	-ka-	nie-	-go il	-men-	.
32c\	.	.	.	.	.	.	.	.
32E\ 32A	.	.	.	.	.	.	.	.
32c\	.	.	.	.	.	.	.	.
32E\ 32A	.	.	8cc\	-ją	-chaj	mi-	-do	.
32c\	.	.	.	.	.	.	.	.
32E\ 32A	.	.	.	.	.	.	.	.
32c\JJJ	.	.	.	.	.	.	.	.
32E\LLL 32G	4r	.	4.b\	ja-	zsy-	-rag-	scop-	.
32B\	.	.	.	.	.	.	.	.
32E\ 32G	.	.	.	.	.	.	.	.
32B\	.	.	.	.	.	.	.	.
32E\ 32G	.	.	.	.	.	.	.	.
32B\	.	.	.	.	.	.	.	.
32E\ 32G	.	.	.	.	.	.	.	.
32B\	.	.	.	.	.	.	.	.
32E\ 32G	4e/ 4g	.	.	.	.	.	.	.
32B\	.	.	.	.	.	.	.	.
32E\ 32G	.	.	.	.	.	.	.	.
32B\	.	.	.	.	.	.	.	.
32E\ 32G	.	.	8g/	-snej	-ła	-gio	-pi il	.
32B\	.	.	.	.	.	.	.	.
32E\ 32G	.	.	.	.	.	.	.	.
32B\JJJ	.	.	.	.	.	.	.	.
=14	=14	=14	=14	=14	=14	=14	=14	=14
32C\LLL 32E 32G	4r	.	4e/	przy-	za	d'a-	fol-	.
32c\	.	.	.	.	.	.	.	.
32C\ 32E 32G	.	.	.	.	.	.	.	.
32c\	.	.	.	.	.	.	.	.
32C\ 32E 32G	.	.	.	.	.	.	.	.
32c\	.	.	.	.	.	.	.	.
32C\ 32E 32G	.	.	.	.	.	.	.	.
32c\	.	.	.	.	.	.	.	.
32C\ 32E 32G	4e/ 4g	.	8.cc\	-szło-	gro-	-mor	-gor	.
32c\	.	.	.	.	.	.	.	.
32C\ 32E 32G	.	.	.	.	.	.	.	.
32c\	.	.	.	.	.	.	.	.
32C\ 32E 32G	.	.	.	.	.	.	.	.
32c\	.	.	.	.	.	.	.	.
32C\ 32E 32G	.	.	16b\	-ści	-mem	sva-	del	.
32c\JJJ	.	.	.	.	.	.	.	.
32E\LLL 32G	4r	.	4b\	sny,	grom,	-ni.	ciel.	.
32B\	.	.	.	.	.	.	.	.
32E\ 32G	.	.	.	.	.	.	.	.
32B\	.	.	.	.	.	.	.	.
32E\ 32G	.	.	.	.	.	.	.	.
32B\	.	.	.	.	.	.	.	.
32E\ 32G	.	.	.	.	.	.	.	.
32B\	.	.	.	.	.	.	.	.
32E\ 32G	4e/ 4g	.	4r	.	.	.	.	.
32B\	.	.	.	.	.	.	.	.
32E\ 32G	.	.	.	.	.	.	.	.
32B\	.	.	.	.	.	.	.	.
32E\ 32G	.	.	.	.	.	.	.	.
32B\	.	.	.	.	.	.	.	.
32E\ 32G	.	.	.	.	.	.	.	.
32B\JJJ	.	.	.	.	.	.	.	.
=15	=15	=15	=15	=15	=15	=15	=15	=15
32G\LLL	4r	.	4b\	Złu-	Niech	O-	Stra-	.
32B\	.	.	.	.	.	.	.	.
32G\	.	.	.	.	.	.	.	.
32B\	.	.	.	.	.	.	.	.
32G\	.	.	.	.	.	.	.	.
32B\	.	.	.	.	.	.	.	.
32G\	.	.	.	.	.	.	.	.
32B\	.	.	.	.	.	.	.	.
32G\	4d/ 4g 4b	.	8cc\	-dnych	pa-	-schu-	-le	.
32B\	.	.	.	.	.	.	.	.
32G\	.	.	.	.	.	.	.	.
32B\	.	.	.	.	.	.	.	.
32G\	.	.	8cc#X\	na-	-la-	-ra il	di	.
32B\	.	.	.	.	.	.	.	.
32G\	.	.	.	.	.	.	.	.
32B\JJJ	.	.	.	.	.	.	.	.
32D\LLL 32F#	4r	.	4.dd\	-dzie-	-ją-	cie-	mor-	.
32A\	.	.	.	.	.	.	.	.
32D\ 32F#	.	.	.	.	.	.	.	.
32A\	.	.	.	.	.	.	.	.
32D\ 32F#	.	.	.	.	.	.	.	.
32A\	.	.	.	.	.	.	.	.
32D\ 32F#	.	.	.	.	.	.	.	.
32A\	.	.	.	.	.	.	.	.
32D\ 32F#	4d/ 4f# 4a	.	.	.	.	.	.	.
32A\	.	.	.	.	.	.	.	.
32D\ 32F#	.	.	.	.	.	.	.	.
32A\	.	.	.	.	.	.	.	.
32D\ 32F#	.	.	16ccn\LL	-i	-ca	-lo	-te	.
32A\	.	.	.	.	.	.	.	.
32D\ 32F#	.	.	16b\JJ	.	.	.	.	.
32A\JJJ	.	.	.	.	.	.	.	.
=16	=16	=16	=16	=16	=16	=16	=16	=16
32Fn\LLL	4r	.	4a/	gwia-	śmier-	fo-	squa-	.
32A\	.	.	.	.	.	.	.	.
32F\	.	.	.	.	.	.	.	.
32A\	.	.	.	.	.	.	.	.
32F\	.	.	.	.	.	.	.	.
32A\	.	.	.	.	.	.	.	.
32F\	.	.	.	.	.	.	.	.
32A\	.	.	.	.	.	.	.	.
32F\	4c/ 4fn 4a	.	8b-X\	-zda	-ci	-sca	-nei il	.
32A\	.	.	.	.	.	.	.	.
32F\	.	.	.	.	.	.	.	.
32A\	.	.	.	.	.	.	.	.
32F\	.	.	8bn\	po-	źre-	bu-	mio	.
32A\	.	.	.	.	.	.	.	.
32F\	.	.	.	.	.	.	.	.
32A\JJJ	.	.	.	.	.	.	.	.
32C\LLL 32E 32G	4r	.	4cc\	-bla-	-ni-	-de-	se-	.
32c\	.	.	.	.	.	.	.	.
32C\ 32E 32G	.	.	.	.	.	.	.	.
32c\	.	.	.	.	.	.	.	.
32C\ 32E 32G	.	.	.	.	.	.	.	.
32c\	.	.	.	.	.	.	.	.
32C\ 32E 32G	.	.	.	.	.	.	.	.
32c\	.	.	.	.	.	.	.	.
32C\ 32E 32G	4e/ 4g	.	4cc\	-dła	-ca	-ra	-no,	.
32c\	.	.	.	.	.	.	.	.
32C\ 32E 32G	.	.	.	.	.	.	.	.
32c\	.	.	.	.	.	.	.	.
32C\ 32E 32G	.	.	.	.	.	.	.	.
32c\	.	.	.	.	.	.	.	.
32C\ 32E 32G	.	.	.	.	.	.	.	.
32c\JJJ	.	.	.	.	.	.	.	.
=17	=17	=17	=17	=17	=17	=17	=17	=17
4AA:/ 4C: 4D#X: 4F#:	4c:/ 4d#X: 4f#:	.	4cc\	E-	Mo-	L'a-	mi-	.
4GG:/ 4BB: 4E:	4G:/ 4B: 4e:	.	8.b\	-cho	-im	-stro	-nac-	.
.	.	.	16g/	prze-	i	di	-ci i	.
4C:/ 4E:	(4G:/ 4c: 4e:	.	4e/	-kleń-	je-	spe-	gior-	.
8BB/L	8d#/L 8f#	.	8.f#/	-stwem	-go	-me	-ni	.
8BB-X/J	8dn/J) 8g	.	.	.	.	.	.	.
.	.	.	16g/	po-	za	gia im	del	.
!!LO:LB:g=original	!	!	!	!	!	!	!	!
=18	=18	=18	=18	=18	=18	=18	=18	=18
*^	*	*	*	*	*	*	*	*
(4E/	2AA\	((2c#X/ 2a	.	4.a/	-nu-	gra-	pal-	mio	.
4E#X/	.	.	.	.	.	.	.	.	.
.	.	.	.	8a/	-ro	-ża	-li-	fe	.
4F#/)	4D\	4d/)) 4f#	.	4a/	drży!	dniom.	-di.	del.	.
8D\ 8F# 8A	4ryy	8r	.	4r	.	.	.	.	.
8r	.	8a/	.	.	.	.	.	.	.
*v	*v	*	*	*	*	*	*	*	*
!!LO:REH:t=78
=19	=19	=19	=19	=19	=19	=19	=19	=19
!	!LO:TX:b:t=arpa	!	!	!	!	!	!	!
8C/	16a/LL	.	4a/	Świat	Dla	Reg-	In	.
.	16A/	.	.	.	.	.	.	.
8r	16c/	.	.	.	.	.	.	.
.	16e/JJ	.	.	.	.	.	.	.
8E\ 8A	16a/LL	.	8cc\	nie	mej	-go-	o-	.
.	16e/	.	.	.	.	.	.	.
8r	16c/	.	8ee\	z bła-	mi-	-no il	-lo-	.
.	16A/JJ	.	.	.	.	.	.	.
8BB/	16r	.	4.dd#X\	-ga-	-łoś-	mon-	-cau-	.
.	16B/LL	.	.	.	.	.	.	.
8r	16d#X/	.	.	.	.	.	.	.
.	16f#/JJ	.	.	.	.	.	.	.
8F#\ 8B	16a/LL	.	.	.	.	.	.	.
.	16f#/	.	.	.	.	.	.	.
8r	16d#/	.	8b\	-ne	-ci	-do	-sto	.
.	16B/JJ	.	.	.	.	.	.	.
=20	=20	=20	=20	=20	=20	=20	=20	=20
8EE/	16r	.	4a/	wska-	wzgar-	teg-	d'a-	.
.	16A/LL	.	.	.	.	.	.	.
8r	16c/	.	.	.	.	.	.	.
.	16e/JJ	.	.	.	.	.	.	.
8E\	16a/LL	.	8g/	-zu-	-dzę	-gi	-mor	.
.	16e/	.	.	.	.	.	.	.
8r	16c/	.	8a/	-je	cier-	spie-	su-	.
.	16A/JJ	.	.	.	.	.	.	.
8DD#X/	16r	.	4b\	pra-	-pie-	-ta-	-bli-	.
.	16B/LL	.	.	.	.	.	.	.
8r	16f#/	.	.	.	.	.	.	.
.	16a/JJ	.	.	.	.	.	.	.
8F#\ 8B	16b/LL	.	4f#/	-wa	-niem	-le,	-me,	.
.	16a/	.	.	.	.	.	.	.
8r	16f#/	.	.	.	.	.	.	.
.	16B/JJ	.	.	.	.	.	.	.
!!LO:PB:g=original	!	!	!	!	!	!	!	!
=21	=21	=21	=21	=21	=21	=21	=21	=21
((4FF#/ 4F#	16r	.	4a/	Co	Jej	che	e	.
.	(16c/LL	.	.	.	.	.	.	.
.	16e/	.	.	.	.	.	.	.
.	16a/JJ	.	.	.	.	.	.	.
4EE/)) 4E	16cc/LL	.	8cc\	nie-	źró-	duol	san-	.
.	16a/	.	.	.	.	.	.	.
.	16e/	.	8ee\	-na-	-dło	ed	-gue e	.
.	16c/JJ)	.	.	.	.	.	.	.
2BBB/ 2BB	16r	.	(16dd#X\LL	-wi-	w nie-	o-	vi-	.
.	(16B/LL	.	[16ff#\JJ)	.	.	.	.	.
.	16d#X/	.	4ff#\]	.	.	.	.	.
.	16a/JJ	.	.	.	.	.	.	.
.	16b/LL	.	.	.	.	.	.	.
.	16a/	.	.	.	.	.	.	.
.	16dny/	.	8b\	-ści	-bie	-dio	-ta	.
.	16B/JJ)	.	.	.	.	.	.	.
=22	=22	=22	=22	=22	=22	=22	=22	=22
8CC/ 8C	16r	.	4a/	i	tam	fan-	son	.
.	(16e/LL	.	.	.	.	.	.	.
8r	16a/	.	.	.	.	.	.	.
.	16e/JJ	.	.	.	.	.	.	.
8A\ 8c	16ee/LL	.	16g#X/LL	cier-	zło-	-no al-	pron-	.
.	16a/	.	16a/JJ	.	.	.	.	.
8r	16e/	.	16b\LL	-pień	-żę	-li-	-ta a	.
.	16a/JJ)	.	16cc\JJ	.	.	.	.	.
8C/	16r	.	[4dd\	chcą.	ją	-gnar.	dar.	.
.	16d/LL	.	.	.	.	.	.	.
8r	16f#/	.	.	.	.	.	.	.
.	16dd/JJ	.	.	.	.	.	.	.
8A\ 8c	16a/LL	.	8dd\]	.	.	.	.	.
.	16f#/	.	.	.	.	.	.	.
8r	16d/	.	8r	.	.	.	.	.
.	16dd/JJ	.	.	.	.	.	.	.
=23	=23	=23	=23	=23	=23	=23	=23	=23
4BB:\ 4D: 4G: 4B:	16dd/LL	f	4dd\	Po	Pierś	Chie-	D'o-	.
.	16b/	.	.	.	.	.	.	.
.	16g/	.	.	.	.	.	.	.
.	16d/JJ	.	.	.	.	.	.	.
.	.	.	8qff#/	.	.	.	.	.
4AA:\ 4D: 4F#: 4A:	16cc/LL	.	8ee\	ży-	ko-	-do-	-gni	.
.	16a/	.	.	.	.	.	.	.
.	16f#/	.	8dd\	-cie	-na-	-no	fal-	.
.	16d/JJ	.	.	.	.	.	.	.
4GG:/ 4BB: 4D: 4G:	16b/LL	.	4.gg\	się-	-ją-	san-	-lar	.
.	16g/	.	.	.	.	.	.	.
.	16d/	.	.	.	.	.	.	.
.	16B/JJ	.	.	.	.	.	.	.
4G\	16r	.	.	.	.	.	.	.
.	16B/LL	.	.	.	.	.	.	.
.	16g/	.	8b\	-ga	-ca	-gue	m'as	.
.	16b/JJ	.	.	.	.	.	.	.
!!LO:LB:g=original	!	!	!	!	!	!	!	!
=24	=24	=24	=24	=24	=24	=24	=24	=24
8BB/	16r	.	4ff#\	dłoń	zo-	le	sol-	.
.	(16B/LL	.	.	.	.	.	.	.
8r	16f#/	.	.	.	.	.	.	.
.	16a/JJ	.	.	.	.	.	.	.
8F#\ 8A	16b/LL	.	8.ee\	zem-	-sta-	tur-	-ve e	.
.	16a/	.	.	.	.	.	.	.
8r	16f#/	.	.	.	.	.	.	.
.	16B/JJ)	.	16dd#X\	-sty	-tniem	-be aiz-	re-	.
8EE/	16r	.	4ff#\	krwa-	tchnie-	-za-	-gi-	.
.	(16B/LL	.	.	.	.	.	.	.
8r	16e/	.	.	.	.	.	.	.
.	16f#/JJ	.	.	.	.	.	.	.
8E\ 8G	16g/LL	.	8ee\	-wej	-niem	-te.	-me	.
.	16e/	.	.	.	.	.	.	.
8r	16g/	.	16r	.	.	.	.	.
!	!	!	!	!	!	!	!	!LO:DY:a
.	16b/JJ)	.	16ee\	A	Za-	Ma il	la	p
=25	=25	=25	=25	=25	=25	=25	=25	=25
!	!	!	!LO:TX:t=cre_scen_do:dur=2q2e2s:ext=ud:problem:text with extention lines	!	!	!	!	!LO:HP:a
4GG/ 4D 4Fn	16r	p	4.ffn\	ser-	-wo-	cor	pu-	<
.	(16d/LL	.	.	.	.	.	.	.
.	16fn/	.	.	.	.	.	.	.
.	16g/JJ	.	.	.	.	.	.	.
4D:\ 4F: 4G: 4B:	16b/LL	.	.	.	.	.	.	.
.	16g/	.	.	.	.	.	.	.
.	16f/	.	8b\	-ce	-ła	pur	-ra	.
.	16d/JJ)	.	.	.	.	.	.	.
[4C^:\ 4E: 4G: 4c:	16r	.	4dd\	wo-	jesz-	sem-	fiam-	.
!	!LO:TX:b:t=cre_scen_do:dur=20s:ext=ud:problem:text with extention lines	!	!	!	!	!	!	!
.	16e/LL	<	.	.	.	.	.	.
.	16g/	.	.	.	.	.	.	.
.	16cc/JJ	.	.	.	.	.	.	.
8C/L]	16e/LL	.	16cc\	-ła:	-cze:	-pre	-ma	.
.	16g/	.	16r	.	.	.	.	.
(16BB/L	16cc/	.	8ee\	Ja	Ja	in	che in-	[[
16BB-X/JJ	16ee/JJ	.	.	.	.	.	.	.
=26	=26	=26	=26	=26	=26	=26	=26	=26
!	!	!	!LO:TX:a:i:t=piu largo	!	!	!	!	!LO:DY:a
4AA/)	(16e/LL	.	4.gg\	ko-	ko-	giun-	-giun-	f
.	16g/	.	.	.	.	.	.	.
.	16cc#X/	.	.	.	.	.	.	.
.	16ee/JJ)	.	.	.	.	.	.	.
4AA#X:\ 4E: 4G:	(16e/LL	.	.	.	.	.	.	.
.	16g/	.	.	.	.	.	.	.
.	16cc#/	.	8ff#\	-cham	-cham	-ge a	-ge a	.
.	16ee/JJ)	.	.	.	.	.	.	.
.	.	.	8qaa/	.	.	.	.	.
8BB:\ 8D: 8G:	(16d/LL	.	4.gg^\	ko-	ko-	me	me	.
.	16g/	.	.	.	.	.	.	.
8r	16b/	.	.	.	.	.	.	.
.	16dd/JJ)	.	.	.	.	.	.	.
4BBB/ 4BB	(16d#X/LL	[[	.	.	.	.	.	.
.	16g/	.	.	.	.	.	.	.
.	16b/	.	8dd#X\	-cham	-cham	d'a-	d'a-	.
.	16dd#X/JJ)	.	.	.	.	.	.	.
!!LO:LB:g=original	!	!	!	!	!	!	!	!
=27	=27	=27	=27	=27	=27	=27	=27	=27
!	!LO:TX:b:i:t=acceler.	!	!LO:TX:a:i:t=accelerando	!	!	!	!	!
4CC^/ 4C	(16d#X/LL	f	(4ff#^\	go!	go,	-mar.	-mar.	.
.	16f#/	.	.	.	.	.	.	.
.	16a/	.	.	.	.	.	.	.
.	16dd#X/JJ)	.	.	.	.	.	.	.
4C\ 4c	16e/LL	.	8ee\)	.	.	.	.	.
.	16g/	.	.	.	.	.	.	.
.	16cc/	.	16r	.	.	.	.	.
.	16ee/JJ	.	16b\	A	Za-	Ma il	La	.
4GG#X/ 4G#X	16r	.	4dd^\	ser-	-wo-	co-	fiam-	.
.	(16e/LL	.	.	.	.	.	.	.
.	16b/	.	.	.	.	.	.	.
.	16ddn/JJ)	.	.	.	.	.	.	.
4AA\ 4A	16r	.	8cc\	-ce	-ła:	-re	-ma	.
.	(16e/LL	.	.	.	.	.	.	.
.	16a/	.	8a/	me	ja	m'in-	che in-	.
.	16cc/JJ)	.	.	.	.	.	.	.
=28	=28	=28	=28	=28	=28	=28	=28	=28
*	*	*	*^	*	*	*	*	*
!	!LO:TUP:b	!	!LO:TX:a:B:t=Tempo I.	!	!	!	!	!	!
[8BB\L [8B	24b/LL	.	8.g/L	4.ryy	wo-	ko-	-giun-	-giun-	.
.	24e/	.	.	.	.	.	.	.	.
.	24g/JJ	.	.	.	.	.	.	.	.
!LO:TUP:a	!LO:TUP:a	!	!	!	!	!	!	!	!
24BB\L] 24B]	24b\LL	.	.	.	.	.	.	.	.
24G\	24ee\	.	.	.	.	.	.	.	.
.	.	.	16a/Jk	.	.	.	.	.	.
24E\JJ	24gg\JJ	.	.	.	.	.	.	.	.
8BB/	8bb\	.	16a#X/LL	.	-ła:	-cham,	-ge	-ge	.
.	.	.	16b/JJ	.	.	.	.	.	.
8r	8r	.	16ee/LL	16dd#X\LL	Ja	Ja	o-	o-	.
.	.	.	16gg/JJ	16ee\JJ	.	.	.	.	.
4r	4r	.	4.bb;/	4..gg\	ko-	ko-	-gnor	-gnor	.
8BBB;::/ 8BB::	8B^::/ 8d#X:: 8a:: 8b::	.	.	.	.	.	.	.	.
8r	8r;	.	8dd#/	.	-cham	-cham	d'a-	d'a-	.
.	.	.	.	16ff#\	.	.	.	.	.
=29	=29	=29	=29	=29	=29	=29	=29	=29	=29
16EE/ 16E	(4e/ 4g 4b 4ee	f	2ee/	2ee\	go!	go!	-mar.	-mar.	.
16G\LL	.	.	.	.	.	.	.	.	.
16B\	.	.	.	.	.	.	.	.	.
16e\JJ	.	.	.	.	.	.	.	.	.
16E\LL	8.g\L 8.gg	.	.	.	.	.	.	.	.
16G\	.	.	.	.	.	.	.	.	.
16B\	.	.	.	.	.	.	.	.	.
16e\JJ	16a\Jk 16aa	.	.	.	.	.	.	.	.
16Dn\LL	4b\ 4bb	.	2r	2ryy	.	.	.	.	.
16F#\	.	.	.	.	.	.	.	.	.
16B\	.	.	.	.	.	.	.	.	.
16d\JJ	.	.	.	.	.	.	.	.	.
16D\LL	8.cc#X\L 8.ccc#X	.	.	.	.	.	.	.	.
16F#\	.	.	.	.	.	.	.	.	.
16B\	.	.	.	.	.	.	.	.	.
16d\JJ	16dd\Jk) 16ddd	.	.	.	.	.	.	.	.
*	*	*	*v	*v	*	*	*	*	*
!!LO:LB:g=original	!	!	!	!	!	!	!	!
=30	=30	=30	=30	=30	=30	=30	=30	=30
16C#X\LL	4ee\ 4eee	.	1ryy	.	.	.	.	.
16E\	.	.	.	.	.	.	.	.
16F#\	.	.	.	.	.	.	.	.
16A#X\JJ	.	.	.	.	.	.	.	.
16C#\LL	8.ff#\L 8.fff#	.	.	.	.	.	.	.
16E\	.	.	.	.	.	.	.	.
16F#\	.	.	.	.	.	.	.	.
16A#\JJ	16ee\Jk 16eee	.	.	.	.	.	.	.
16BB\LL	((4ee\ 4eee	.	.	.	.	.	.	.
16F#\	.	.	.	.	.	.	.	.
16B\	.	.	.	.	.	.	.	.
16F#\JJ	.	.	.	.	.	.	.	.
16BB\LL	8dd#X\L)) 8ddd#X	.	.	.	.	.	.	.
16F#\	.	.	.	.	.	.	.	.
16B\	16r	.	.	.	.	.	.	.
16F#\JJ	16bb\Jk	.	.	.	.	.	.	.
=31	=31	=31	=31	=31	=31	=31	=31	=31
16E\LL	((4ddn^\ 4dddn	.	1ryy	.	.	.	.	.
16G#X\	.	.	.	.	.	.	.	.
16B\	.	.	.	.	.	.	.	.
16e\JJ	.	.	.	.	.	.	.	.
16AA\LL	8cc\L)) 8ccc	.	.	.	.	.	.	.
16C\	.	.	.	.	.	.	.	.
16E\	16r	.	.	.	.	.	.	.
16A\JJ	16ee\Jk	.	.	.	.	.	.	.
16BB\LL	4gn^\ 4ggn	.	.	.	.	.	.	.
16E\	.	.	.	.	.	.	.	.
16Gn\	.	.	.	.	.	.	.	.
16B\JJ	.	.	.	.	.	.	.	.
16GG\LL	(8b\L	.	.	.	.	.	.	.
16BB\	.	.	.	.	.	.	.	.
16E\	16a\L	.	.	.	.	.	.	.
16G\JJ	16b\JJ)	.	.	.	.	.	.	.
=32	=32	=32	=32	=32	=32	=32	=32	=32
*^	*	*	*	*	*	*	*	*
!	!	!LO:TX:b:i:t=e rall.	!	!	!	!	!	!	!
16FF#/LL	4ryy	4..cc\	p	1ryy	.	.	.	.	.
16E/	.	.	.	.	.	.	.	.	.
16F#/	.	.	.	.	.	.	.	.	.
16A/JJ	.	.	.	.	.	.	.	.	.
8D#X^/L	4BB\	.	.	.	.	.	.	.	.
!LO:TX:t=P:problem: problem wyświetlania VHV	!	!	!	!	!	!	!	!	!
8AH/J	.	.	.	.	.	.	.	.	.
.	.	16d#X/	.	.	.	.	.	.	.
4EE/	1ryy	4Gh/ 4e	.	.	.	.	.	.	.
16BB/LL	.	4ryy	.	.	.	.	.	.	.
16E/	.	.	.	.	.	.	.	.	.
16G/	.	.	.	.	.	.	.	.	.
16B/	.	.	.	.	.	.	.	.	.
16e>\	.	4ryy	.	2ryy	.	.	.	.	.
16g>\	.	.	.	.	.	.	.	.	.
16b>\	.	.	.	.	.	.	.	.	.
16ee>\JJ	.	.	.	.	.	.	.	.	.
4ryy	.	8gg\	.	.	.	.	.	.	.
.	.	8r;	.	.	.	.	.	.	.
*v	*v	*	*	*	*	*	*	*	*
=:|!	=:|!	=:|!	=:|!	=:|!	=:|!	=:|!	=:|!	=:|!
*-	*-	*-	*-	*-	*-	*-	*-	*-
!!!system-decoration: s1{(s2,s3)}
!!!RDF**kern: > = above
!!!RDF**kern: < = below
!!!ENC: Andrzej Gręziak
!!!END: 2022-09-01
!!!ENC: Natalia Wrzos
!!!END: 2022-10-12
